X: 22304
T: La Roulante
R: barndance
M: 4/4
K: Dmajor
(3ABc|d2A2 =c3B|A2F2 G2FG|A3B ABAG|F2A2 E3c|
d2A2 =c3B|A2F2 G2FG|A3B ABAG|F2E2 D2:|
|:EF|G2E2 BGEB|GEB2 B2AG|F2D2 AFDA|FDA2 A2GF|
G2E2 BGEB|GEB2 B2AG|A3B ABAG|F2E2 D2:|
K:Gmaj
(3def|g2d2 =f3e|d2B2 c2Bc|d3e dedc|B2d2 A3f|
g2d2 =f3e|d2B2 c2Bc|d3e dedc|B2A2 G2:|
|:AB|c2A2 ecAe|cAe2 e2dc|B2G2 dBGd|BGd2 d2cB|
c2A2 ecAe|cAe2 e2dc|d3e dedc|B2A2 G2:|

